!!!!SEGMENT: pl-kk--kk-i-1--061_anonim--responsory.krn
!!!cenid: 15xx:786
!!!COM: Anonim
!!!COM-rismID: pe30004985
!!!CDT:
!!!CNT:
!!!OTL: [Responsory]
!!!PDT:
!!!AGN:
!!!SMS-siglum: PL-Kk
!!!SMS-shelfmark: Kk.I.1
!!!SMS-shelfwork: 061 W
!!!SMS-variant:
!!!SMS-altvar:
!!!NIFC-rismSourceID: 300258015
!!!NIFC-islandoraID: pl-kk:1
!!!URL-pdf-islandora: https://repozytorium.nifc.pl/islandora/object/pl-kk%3A1/datastream/PDF/view
!!!URL-scan: https://polish.musicsources.pl/pl/lokalizacje/galeria/rekopisy/5736 @EN{Scan on Polish Music Sources Website} @PL{Skany w portalu Dziedzictwo Muzyki Polskiej w otwartym dostępie}
!!!ONB-nifc: UWAGA: Cantus (s. 185r-v, skan 0187-0188), Altus (s. 188r-v, skan 0381-0382), Tenor (brak), Bassus (s. 183r-v, skan 0745-0746).
!!!OMD:
!!!AIN: 1 alto 1 bass 1 soprn 1 tenor
!!!key: F
**kern	**text	**kern	**kern	**text	**kern	**text
*part4	*part4	*part3	*part2	*part2	*part1	*part1
*staff4	*staff4	*staff3	*staff2	*staff2	*staff1	*staff1
*I"BASSVS	*	*I"TENOR	*I"ALTVS	*	*I"CANTVS	*
*I'B	*	*I'T	*I'A	*	*I'S	*
*Ibass	*	*Itenor	*Ialto	*	*Isoprn	*
*ICvox	*	*ICvox	*ICvox	*	*ICvox	*
*stria6	*	*	*stria6	*	*stria6	*
*clefF5	*	*clefC3	*clefC4	*	*clefC4	*
*k[b-]	*	*k[b-]	*k[b-]	*	*k[b-]	*
*F:	*	*F:	*F:	*	*F:	*
*M2/1	*	*M2/1	*M2/1	*	*M2/1	*
=1-	=1-	=1-	=1-	=1-	=1-	=1-
*	*	*	*	*^	*	*
*2\right	*	*	*lig	*	*	*lig	*
!LO:TX:a:i:t=Quatuor vocu(m).	!	!LO:TX:t=P:problem=księga tenoru się kończy i tego cyklu odpowiedzi już nie ma. Ale można w miarę to zrekonstruować, bo w tenorze melodia chorałowa. Trochę próbowałem, jakby było trzeba, to mam zrobione.M.S.	!	!	!	!	!
!	!	!	!LO:TX:t=P:problem=tekst wykreślony i wpisany pod spodem nowy, ale tą samą ręką	!	!	!	!
!	!	!	!LO:TX:a:i:t=Quatuor voc(um).	!	!	!	!LO:TX:t=P:problem=róg karty urwany i litera A niewidoczna
2.F\	A-	0ryy	1A	A-	[[ET	1c	A-
4E\	.	.	.	.	.	.	.
2D/	-Men	.	2.B-/	.	.	1d	.
2BB-/	.	.	.	.	.	.	.
*	*	*	*Xlig	*	*	*Xlig	*
.	.	.	4A/	.	.	.	.
=2-	=2-	=2-	=2-	=2-	=2-	=2-	=2-
2C/	.	0ryy	2G/	-MEN	cum	0c	-MEN
2AA/	.	.	2A/	.	.	.	.
1C	A-	.	2.G/	.	spi-	.	.
.	.	.	4F/	.	-ri-	.	.
=3-	=3-	=3-	=3-	=3-	=3-	=3-	=3-
2D/	-men	0ryy	2D/	.	-tu	2A/	.
1BB-	.	.	1d	.	tu-	1B-	.
*	*	*	*2\right	*	*	*	*
2AA/	.	.	2c\	.	.	2c/	.
=4-	=4-	=4-	=4-	=4-	=4-	=4-	=4-
0BB-	.	0ryy	0B-	.	-o]]	0d	.
*	*	*	*	*v	*v	*	*
=5-	=5-	=5-	=5-	=5-	=5-	=5-
0FF	.	0ryy	0A	.	0c	.
=6||-	=6||-	=6||-	=6||-	=6||-	=6||-	=6||-
1F	Et	0ryy	1A	Et	1c	Et
*	*	*	*	*	*2\right	*
2BB-/	cum	.	1B-	.	2d\	.
1D\	.	.	.	.	1f\	cum
=7-	=7-	=7-	=7-	=7-	=7-	=7-
.	.	0ryy	2A/	cum	.	.
4C/	ſpi-	.	2B-/	.	4e\	Sp(i-
4BB-/	.	.	.	.	4d\	.
2AA/	-ri-	.	2c/	Spi-	2c/	-ri-
2BB-/	-tu	.	4B-/	-ri-	2d\	-t)u
.	.	.	4A/	.	.	.
=8-	=8-	=8-	=8-	=8-	=8-	=8-
0C	tu-	0ryy	2G/	-tu	0c	tu-
.	.	.	2A/	tu-	.	.
.	.	.	1G	-o	.	.
=9-	=9-	=9-	=9-	=9-	=9-	=9-
0FF	-o	0ryy	0A	.	0c	-o
=10||-	=10||-	=10||-	=10||-	=10||-	=10||-	=10||-
!LO:LB:g=original	!	!	!LO:LB:g=original	!	!	!
1FF	GLo-	0ryy	1A	Glo-	1c	Glo-
2BB-/	.	.	2B-/	-ri-	2d\	-ri-
2AA/	-ri-	.	2c/	-a	1c\	-a
=11-	=11-	=11-	=11-	=11-	=11-	=11-
1D	-a	0ryy	2.F/	ti-	.	.
.	.	.	.	.	2B-/	ti-
.	.	.	4G/	-bi	.	.
1C	.	.	2A/	.	1c	-bi
*	*	*	*	*	*custos:A	*
.	.	.	2G/	.	.	.
=12-	=12-	=12-	=12-	=12-	=12-	=12-
!	!	!	!	!	!LO:LB:g=original	!
2D/	ti-	0ryy	2F/	Do-	2A/	Do-
2GG/	-bi	.	2G/	.	2B-/	.
1AA	Do-	.	1E	-mi-	2.A/	-mi-
.	.	.	.	.	4G/	-ne
=13-	=13-	=13-	=13-	=13-	=13-	=13-
2BB-/	.	0ryy	2D/	-ne	2F/	.
1GG	-mi-	.	1G	.	1B-	.
2GG/	-ne	.	2G/	.	2B-/	.
=14-	=14-	=14-	=14-	=14-	=14-	=14-
!	!	!	!LO:TX:b:t=P:problem=# below	!	!	!
0D	.	0ryy	0F#X	.	0A	.
=15||-	=15||-	=15||-	=15||-	=15||-	=15||-	=15||-
*lig	*	*	*	*	*	*
!LO:TX:a:i:t=Prafa\ntio	!	!	!LO:TX:a:i:t=Pr(ae)fa&colon;\ntio(n)is	!	!LO:TX:a:i:t=Pr(ae)fa\ntio	!
1FF	A-	0ryy	1.c	A-	1r	.
*	*	*	*	*	*lig	*
1.F	.	.	.	.	1c	A-
.	.	.	2B-/	.	.	.
*Xlig	*	*	*	*	*	*
=16-	=16-	=16-	=16-	=16-	=16-	=16-
.	-­-	0ryy	2A/	-MEN	1.f	.
2E\	-MEN	.	2G/	.	.	.
2D\	.	.	4Fny/	.	.	.
!	!	!	!LO:TX:t=P:problem=semiminima, ale z oznaczeniem pod spodem, więc chyba sugestia pomyłki rytmicznej. Rzeczywiście brakuje w tym takcie jednej wartości	!	!	!
.	.	.	2G/	.	.	.
*	*	*	*	*	*Xlig	*
2C/	.	.	.	.	2e\	-MEN
.	.	.	4A/	.	.	.
*	*	*	*custos:B	*	*	*
=17-	=17-	=17-	=17-	=17-	=17-	=17-
!	!	!	!LO:LB:g=original	!	!	!
2BB-/	.	0ryy	2B-\	.	2d\	.
2AA/	.	.	2c\	.	2c\	.
1BB-	.	.	1d	.	1B-	.
=18-	=18-	=18-	=18-	=18-	=18-	=18-
0FF	.	0ryy	0c	.	0A	.
=19||-	=19||-	=19||-	=19||-	=19||-	=19||-	=19||-
!	!	!	!	!	!LO:LB:g=original	!
1F	Et	0ryy	1c	ET	1f	ET
*custos:FF	*	*	*	*	*	*
1C	cum	.	2.c\	cum	1e	.
.	.	.	4B-/	.	.	.
*custos:FF	*	*	*	*	*	*
=20-	=20-	=20-	=20-	=20-	=20-	=20-
!LO:LB:g=original	!	!	!	!	!	!
2FF/	ſpi-	0ryy	4A/	.	2c/	cum
.	.	.	4G/	.	.	.
1F	-ri-	.	2F/	Spi-	2.c/	.
.	.	.	2r	.	.	.
.	.	.	.	.	4d\	Spi-
2E\	-tu	.	1c\	-ri-	4e\	.
.	.	.	.	.	4c\	-ri-
=21-	=21-	=21-	=21-	=21-	=21-	=21-
*lig	*	*	*	*	*	*
1D	tu-	0ryy	.	.	4d\	.
.	.	.	.	.	4e\	-tu
.	.	.	2B-/	-tu	1f	.
1C	.	.	1c	tu-	.	.
.	.	.	.	.	2e\	tu-
*Xlig	*	*	*	*	*	*
=22-	=22-	=22-	=22-	=22-	=22-	=22-
0FF	-o.	0ryy	0c	-o	1.f	-o.
.	.	.	.	.	4e\	.
.	.	.	.	.	4d\	.
=23-	=23-	=23-	=23-	=23-	=23-	=23-
0C	.	0ryy	0c	.	0e	.
*	*	*	*clefC5	*	*	*
=24||-	=24||-	=24||-	=24||-	=24||-	=24||-	=24||-
2.F\	HA-	0ryy	2.A\	Ha-	1c	HA-
4E\	.	.	4G/	-be-	.	.
4D\	-be-	.	2A/	-mus	2.d\	-be-
4C\	.	.	.	.	.	.
1BB-/	-mus	.	1B-\	.	.	.
.	.	.	.	.	4c/	.
=25-	=25-	=25-	=25-	=25-	=25-	=25-
.	.	0ryy	.	.	2d\	-mu(s)
*lig	*	*	*	*	*	*
1C	.	.	2G/	ad	2.e\	.
.	.	.	4c\	.	.	.
.	.	.	4B-\	.	4c/	ad
1D\	.	.	4A\	.	1f\	.
.	.	.	4G\	Do-	.	.
*Xlig	*	*	*	*	*	*
=26-	=26-	=26-	=26-	=26-	=26-	=26-
.	.	0ryy	2F/	.	.	.
2E\	ad	.	2G/	-mi-	4e\	do-
*	*	*	*custos:A	*	*	*
.	.	.	.	.	4d\	.
*	*	*	*clefC4	*	*	*
!	!	!	!LO:LB:g=original	!	!	!
2F\	.	.	2A/	.	1c	-mi-
2.FF/	Do-	.	1F/	.	.	.
=27-	=27-	=27-	=27-	=27-	=27-	=27-
.	.	0ryy	.	.	1c	.
4GG/	-mi-	.	.	.	.	.
4AA/	.	.	4E/	.	.	.
4BB-/	-num	.	4D/	-num	.	.
*	*ij	*	*	*	*	*
1.C	ad	.	2.E/	.	2.c/	-num
.	.	.	4D/	.	4d\	.
*	*	*	*	*	*custos:e	*
=28-	=28-	=28-	=28-	=28-	=28-	=28-
!	!	!	!	!	!LO:LB:g=original	!
.	.	0ryy	2C/	.	2e\	ad
2AA/	Do-	.	2c\	.	2f\	.
2BB-/	.	.	2B-\	.	2d\	do-
1C/	.	.	2G/	.	2.e\	-mi-
=29-	=29-	=29-	=29-	=29-	=29-	=29-
.	.	0ryy	2c\	.	.	.
.	.	.	.	.	4c\	-nu(m)
2BB-/	-mi-	.	2d\	.	1f	.
1C	-num	.	1c	.	.	.
*	*Xij	*	*	*	*	*
.	.	.	.	.	2e\	.
=30-	=30-	=30-	=30-	=30-	=30-	=30-
0FF	.	0ryy	0A	.	0f	.
*	*	*	*clefC5	*	*	*
=31||-	=31||-	=31||-	=31||-	=31||-	=31||-	=31||-
*	*	*	*	*	*	*^
!	!	!	!	!	!LO:TX:t=P:problem=tekst wykreślony i wpisany pod spodem nowy, ale tą samą ręką	!	!
!LO:LB:g=original	!	!	!	!	!LO:TX:t=P:problem=jest odnośnik "vi-de" i część partii zanotowana na dole sąsiedniej, lewej strony. Ale nie wiem czemu, bo przepisano dokładnie to samo co tu. 	!	!
2.F\	Di-	0ryy	0A	Di-	1.f	Di-	[[Sed
4E\	.	.	.	.	.	.	.
2D\	-gnum	.	.	.	.	.	.
2C/	.	.	.	.	2e\	-gnum	.
=32-	=32-	=32-	=32-	=32-	=32-	=32-	=32-
1BB-	et	0ryy	1D	-gnum	1d	.	li-
2AA/	Ju-	.	2E/	.	1c	et	-be-
2FF/	-ſtum	.	1F/	e(t)	.	.	.
=33-	=33-	=33-	=33-	=33-	=33-	=33-	=33-
1GG	.	0ryy	.	.	2B-/	.	-ra
.	.	.	2E/	iu-	2G/	Ju-	.
2FF/	eſt	.	4F/	-ſtum	1c	-ſtum	.
.	.	.	4G/	.	.	.	.
2F\	.	.	4A\	.	.	.	.
.	.	.	4B-\	.	.	.	.
=34-	=34-	=34-	=34-	=34-	=34-	=34-	=34-
2F\	.	0ryy	1c	eſt.	2r	.	.
2F\	.	.	.	.	2c/	.	nos
1C	.	.	2r	.	2c/	.	.
.	.	.	2c\	.	2c/	.	.
=35-	=35-	=35-	=35-	=35-	=35-	=35-	=35-
2r	.	0ryy	2c\	.	4F/	eſt.	a-
.	.	.	.	.	4G/	.	.
2C/	et	.	2c\	.	4A/	.	.
*	*	*	*custos:G	*	*	*	*
.	.	.	.	.	4B-/	.	.
*	*	*	*clefC4	*	*	*	*
!	!	!	!LO:PB:g=original	!	!	!	!
2C/	Juſ-	.	1G	.	4c\	.	-ma-
.	.	.	.	.	4d\	.	.
2C/	-tu(m)	.	.	.	4e\	.	.
.	.	.	.	.	4c\	.	.
=36-	=36-	=36-	=36-	=36-	=36-	=36-	=36-
1GG	eſt	0ryy	2r	.	2d\	.	lo.]]
.	.	.	2B-\	e(t)	1d	.	.
2r	.	.	2B-\	iuſ-	.	.	.
2BB-/	.	.	2B-\	-tu(m)	2d\	.	.
*	*	*	*	*	*	*v	*v
=37-	=37-	=37-	=37-	=37-	=37-	=37-
2BB-/	.	0ryy	2.A/	eſt	1d	.
2BB-/	.	.	.	.	.	.
.	.	.	4B-/	.	.	.
1FF	.	.	1A	.	1c	.
=38||-	=38||-	=38||-	=38||-	=38||-	=38||-	=38||-
!LO:PB:g=original	!	!	!	!	!LO:PB:g=original	!
1F	Sed	0ryy	1A	Sed	1c	Sed
1D	.	.	2A/	li-	2d\	.
.	.	.	2B-\	-be-	2f\	Li-
=39-	=39-	=39-	=39-	=39-	=39-	=39-
1C	li-	0ryy	2.c\	-ra	2e\	.
.	.	.	.	.	1c	-be-
.	.	.	4B-\	.	.	.
1FF	-be-	.	4A/	.	.	.
.	.	.	4G/	.	.	.
.	.	.	1F/	nos	2.f\	-ra
=40-	=40-	=40-	=40-	=40-	=40-	=40-
1BB-	-ra	0ryy	.	.	.	.
.	.	.	.	.	4e\	.
.	.	.	1B-	.	4d\	.
.	.	.	.	.	4c\	nos
2.GG/	.	.	.	.	4B-/	.
.	.	.	.	.	4c/	.
.	.	.	2.B-\	a	1d\	.
4AA/	nos	.	.	.	.	.
=41-	=41-	=41-	=41-	=41-	=41-	=41-
2BB-/	.	0ryy	.	.	.	.
.	.	.	4A/	Ma-	.	.
2C/	.	.	4G/	.	2c/	A
.	.	.	4A/	.	.	.
2GG/	a	.	2B-/	-lo.	2d\	ma-
2C/	ma-	.	2c/	.	2e\	.
=42-	=42-	=42-	=42-	=42-	=42-	=42-
2FF/	.	0ryy	2A/	.	2f\	-lo
2FF/	-lo	.	2c/	.	2f\	.
1BB-	.	.	1B-	.	1d	.
=43-	=43-	=43-	=43-	=43-	=43-	=43-
0FF	.	0ryy	0A	.	0c	.
=44||-	=44||-	=44||-	=44||-	=44||-	=44||-	=44||-
*k[]	*	*k[]	*k[]	*	*k[]	*
*C:	*	*C:	*C:	*	*C:	*
!	!	!	!LO:LB:g=original	!	!LO:LB:g=original	!
1C	DE-	0ryy	1e	DE-	1g	DE-
2D\	-o	.	2d\	.	2f\	.
1F\	.	.	2A/	.	2.c/	-o
=45-	=45-	=45-	=45-	=45-	=45-	=45-
.	.	0ryy	2B\	-o	.	.
.	.	.	.	.	4d\	.
2E\	Gra-	.	2c\	.	4e\	.
.	.	.	.	.	4c\	GRA-
2.D\	.	.	2A/	GRA-	4d\	.
.	.	.	.	.	4e\	.
.	.	.	2.B/	.	4f\	.
4C/	-ti-	.	.	.	4d\	.
=46-	=46-	=46-	=46-	=46-	=46-	=46-
4AA/	-as	0ryy	.	.	2e\	.
4BB/	.	.	4A/	.	.	.
2C/	.	.	1A	.	2c/	-ti-
1BB	.	.	.	.	1d	-as
*custos:AA	*	*	*	*	*	*
.	.	.	2G/	-ti-	.	.
=47-	=47-	=47-	=47-	=47-	=47-	=47-
!LO:LB:g=original	!	!	!	!	!	!
1AA	.	0ryy	2A/	-as.	2.c/	.
.	.	.	2A/	.	.	.
.	.	.	.	.	4d\	.
1AA	Gra-	.	2.c\	.	1.e	.
.	.	.	4B/	.	.	.
=48-	=48-	=48-	=48-	=48-	=48-	=48-
2.C/	.	0ryy	2A/	.	.	.
.	.	.	2G/	.	2e\	.
4BB/	-ti-	.	.	.	.	.
2AA/	-as	.	2A/	.	2c/	.
2GG/	.	.	2B\	.	2B/	.
=49-	=49-	=49-	=49-	=49-	=49-	=49-
1AA	.	0ryy	2c\	.	2A/	.
.	.	.	1A	.	2c/	.
0.E	.	.	.	.	0.B	.
.	.	.	4G/	.	.	.
!	!	!	!LO:TX:b:t=P:problem=# below	!	!	!
.	.	.	4F#X/	.	.	.
=50-	=50-	=50-	=50-	=50-	=50-	=50-
!	!	!	!LO:TX:b:t=P:problem=# below	!	!	!
!	!	!	!LO:TX:t=P:problem=to, co w księdze Altus jest dalej to dopisane głosy do mszy z początky rękopisu. Uwzględnione wcześniej w transkrypcjach. 	!	!	!
.	.	0ryy	0G#X	.	.	.
=-	=-	=-	=-	=-	=-	=-
*-	*-	*-	*-	*-	*-	*-
!!!system-decoration: [(s1,s2,s3,s4)]
!!!ENC: Mateusz Solarz
!!!END: 2022-02-23
!!!ENC: Marta Chmielewska
!!!END: 2022-03-25
